!!!!SEGMENT: pl-kk--kk-i-7--046-003_luython-carl--missa-sanctus.krn
!!!cenid: 16xx:850
!!!COM: Luython, Carl
!!!COM-rismID: pe30012976
!!!CDT: ~1557-1620
!!!CNT:
!!!OPR: Missa
!!!OTL: Sanctus
!!!OMV: 003
!!!PDT:
!!!AGN: Sacred; Mass
!!!SMS-siglum: PL-Kk
!!!SMS-shelfmark: Kk.I.7
!!!SMS-shelfwork: 046-003 M
!!!SMS-variant:
!!!SMS-altvar:
!!!NIFC-rismSourceID: 300258077
!!!NIFC-rismChildID: 300258123
!!!NIFC-islandoraID: pl-kk:1956
!!!URL-pdf-islandora: https://repozytorium.nifc.pl/islandora/object/pl-kk%3A1956/datastream/PDF/view
!!!URL-scan: https://polish.musicsources.pl/pl/lokalizacje/galeria/rekopisy/6140 @EN{Scan on Polish Music Sources Website} @PL{Skany w portalu Dziedzictwo Muzyki Polskiej w otwartym dostępie}
!!!IIIF: https://repozytorium.nifc.pl/islandora/object/pl-kk%3A1956/datastream/IIIF/view
!!!ONB-nifc: UWAGA: C (skan 0041, s.76-77), A (0125-0126, s.70-72), T(0201-0202, s.66-68), B(0290-0291, s.67-68). Części Mszy: 1. Kyrie, 2. Et in terra, 3. Sanctus, 4. Agnus Dei
!!!AIN: 1 alto 1 bass 1 soprn 1 tenor
!!!key:
**kern	**text	**kern	**text	**kern	**text	**kern	**text
*part4	*part4	*part3	*part3	*part2	*part2	*part1	*part1
*staff4	*staff4	*staff3	*staff3	*staff2	*staff2	*staff1	*staff1
*Ibass	*	*Itenor	*	*Ialto	*	*Isoprn	*
*I"BASSUS.	*	*I"TENOR.	*	*I"ALTVS.	*	*I"CANTVS.	*
*I'B	*	*I'T	*	*I'A	*	*I'S	*
*clefF4	*	*clefC4	*	*clefC3	*	*clefC3	*
*k[b-]	*	*k[b-]	*	*k[b-]	*	*k[b-]	*
*g:	*	*g:	*	*g:	*	*g:	*
*M2/1	*	*M2/1	*	*M2/1	*	*M2/1	*
*met(C|)	*	*met(C|)	*	*met(C|)	*	*met(C|)	*
=1-	=1-	=1-	=1-	=1-	=1-	=1-	=1-
*	*	*2\right	*	*2\right	*	*	*
*xywh-#291:1212,1356,5877,659	*	*xywh-#201:7114,1840,5861,643	*	*xywh-#125:7295,1368,6318,620	*	*xywh-#41:7141,1379,6459,643	*
0G\	San-	2.B-\	San-	2.d\	San-	2r	.
.	.	.	.	.	.	1d\	San-
.	.	4A\	.	4c/	.	.	.
.	.	4G/	.	2B-/	.	.	.
.	.	4A/	.	.	.	.	.
*	*	*	*	*	*	*2\right	*
.	.	4B-\	.	4A/	.	2e\	.
.	.	4c\	.	4G/	.	.	.
=2-	=2-	=2-	=2-	=2-	=2-	=2-	=2-
0D\	.	4d\	.	2A/	.	2f#X\	.
.	.	4c\	.	.	.	.	.
!	!	!	!	!LO:TX:t=P:problem=kreska pseudotaktowa	!	!	!
.	.	4B-\	.	2d\	ctus.	2.g\	.
.	.	8A/L	.	.	.	.	.
.	.	8G/J	.	.	.	.	.
.	.	1A\	.	2.d\	San-	.	.
.	.	.	.	.	.	8f#X\L	.
.	.	.	.	.	.	8e\J	.
.	.	.	.	.	.	2f#\	.
.	.	.	.	4c/	.	.	.
=3-	=3-	=3-	=3-	=3-	=3-	=3-	=3-
!LO:TX:t=P:problem=kreska pseudotaktowa	!	!LO:TX:t=P:problem=kreska pseudotaktowa	!	!	!	!LO:TX:t=P:problem=kreska pseudotaktowa	!
1GG/	-ct(us).	1G/	-ctus	2B-/	.	1g\	-ctus
.	.	.	.	4A/	.	.	.
!	!	!	!	!LO:TX:t=P:problem=kreska pseudotaktowa	!	!	!
.	.	.	.	4G/	.	.	.
0D\	Sa-	2r	.	0A/	.	2r	.
.	.	4D/	San-	.	.	1fn\	San-
!	!	!LO:TX:t=P:problem=kreska pseudotaktowa	!	!	!	!	!
.	.	4E/	.	.	.	.	.
=4-	=4-	=4-	=4-	=4-	=4-	=4-	=4-
.	.	4F/	.	.	.	.	.
.	.	4G/	.	.	.	.	.
.	.	4A/	.	.	.	4e\	.
.	.	4Bn/	.	.	.	4d\	.
!	!	!	!	!LO:TX:t=P:problem=kreska pseudotaktowa	!	!	!
0AA/	.	2c#X\	.	0A/	-ctus	2e\	.
.	.	2.d\	.	.	.	2f\	.
=5-	=5-	=5-	=5-	=5-	=5-	=5-	=5-
.	.	.	.	.	.	1e\	.
.	.	8c#X\L	.	.	.	.	.
.	.	8Bny\J	.	.	.	.	.
!	!	!LO:TX:t=P:problem=kreska pseudotaktowa	!	!	!	!	!
.	.	2c#\	.	.	.	.	.
!	!	!	!	!LO:TX:t=P:problem=kreska pseudotaktowa	!	!LO:TX:t=P:problem=kreska pseudotaktowa	!
2D,/	-ct(us)	2d,\	-ctus	0r	.	0.d\	-ctus
!	!	!LO:TX:a:t=P:problem=♭ above	!	!	!	!	!
4GG/	San-	1B-X\	San-	.	.	.	.
!LO:TX:t=P:problem=kreska pseudotaktowa	!	!	!	!	!	!	!
4AA/	.	.	.	.	.	.	.
=6-	=6-	=6-	=6-	=6-	=6-	=6-	=6-
4BB-/	.	.	.	.	.	.	.
4C/	.	.	.	.	.	.	.
4D/	.	4A/	.	.	.	.	.
!	!	!LO:TX:t=P:problem=kreska pseudotaktowa	!	!	!	!	!
4E/	.	4G/	.	.	.	.	.
*2\right	*	*	*	*	*ij	*	*
2F#X\	.	2A\	.	0d\	San-	.	.
2.G\	.	2B-\	.	.	.	.	.
=7-	=7-	=7-	=7-	=7-	=7-	=7-	=7-
!	!	!LO:TX:t=P:problem=kreska pseudotaktowa	!	!	!	!	!
.	.	1A\	.	.	.	1r	.
8F#X\L	.	.	.	.	.	.	.
8E\J	.	.	.	.	.	.	.
!LO:TX:t=P:problem=kreska pseudotaktowa	!	!	!	!	!	!	!
2F#\	.	.	.	.	.	.	.
2G,\	-ct(us)	2G,/	-ct(us)	2Bn,/	-ctus	2r	.
*	*	*	*	*	*Xij	*	*
2.GG/	Do-	2.G/	Do-	2.Bny/	Do-	2.d\	Do-
=8-	=8-	=8-	=8-	=8-	=8-	=8-	=8-
4GG/	-mi-	4G/	-mi-	4Bny/	-mi-	4d\	-mi-
!LO:TX:t=P:problem=kreska pseudotaktowa	!	!LO:TX:t=P:problem=kreska pseudotaktowa	!	!LO:TX:t=P:problem=kreska pseudotaktowa	!	!LO:TX:t=P:problem=kreska pseudotaktowa	!
2C/	-n(us)	2G/	-n(us)	2c\	-n(us)	2e\	-n(us)
4BB-/	DE-	1B-\	De-	2d\	De-	1.f\	DE-
4C/	.	.	.	.	.	.	.
4D/	.	.	.	2d\	-(us)	.	.
4E/	.	.	.	.	.	.	.
=9-	=9-	=9-	=9-	=9-	=9-	=9-	=9-
2F\	.	2A,\	-us	2c/	Sab-	.	.
2G\	-US	1G/	Sab-	2Bn/	-ba-	2d\	-(us)
!	!	!	!	!LO:TX:t=P:problem=kreska pseudotaktowa	!	!	!
2.C/	Sab-	.	.	1c\	-oth.	2.e-X\	Sab-
!	!	!LO:TX:t=P:problem=kreska pseudotaktowa	!	!	!	!	!
.	.	2G/	-ba-	.	.	.	.
4C/	-ba-	.	.	.	.	4e-\	-ba-
=10-	=10-	=10-	=10-	=10-	=10-	=10-	=10-
!LO:TX:t=P:problem=kreska pseudotaktowa	!	!	!	!	!	!LO:TX:t=P:problem=kreska pseudotaktowa	!
!	!	!LO:TX:t=P:problem=♯ above	!	!	!	!	!
1D\	-oth	2F#X,/	-oth.	1A/	Ple-	1d\	-oth.
!	!	!LO:TX:t=P:problem=kreska pseudotaktowa	!	!	!	!	!
.	.	2F#/	Ple-	.	.	.	.
!LO:TX:t=P:problem=kreska pseudotaktowa	!	!LO:LB:g=original	!	!	!	!	!
*	*	*xywh-#201:7159,2364,5876,598	*	*	*	*	*
1r	.	2G/	-ni	2B-/	-ni	1r	.
!	!	!	!	!LO:TX:t=P:problem=kreska pseudotaktowa	!	!	!
.	.	2A\	sunt	2c/	sunt	.	.
=11-	=11-	=11-	=11-	=11-	=11-	=11-	=11-
2r	.	1B-\	cae-	1d\	cae-	2r	.
!LO:TX:t=P:problem=kreska pseudotaktowa	!	!	!	!	!	!	!
2BB-/	Ple-	.	.	.	.	2d\	Ple-
2C/	-ni	2.A\	-li	2c/	-li	2e\	-ni
*custos:E	*	*	*	*	*	*	*
!LO:TX:t=P:problem=kreska pseudotaktowa	!	!	!	!	!	!	!
2D\	sunt	.	.	2A/	et	2f#X\	sunt
.	.	4d\	et	.	.	.	.
!LO:LB:g=original	!	!	!	!	!	!	!
=12-	=12-	=12-	=12-	=12-	=12-	=12-	=12-
!	!	!	!	!LO:TX:t=P:problem=kreska pseudotaktowa	!	!	!
*xywh-#291:1245,1848,5894,701	*	*	*	*	*	*	*
1E-X\	cae-	2B-\	ter-	1G/	ter-	1g\	cae-
!	!	!LO:TX:t=P:problem=kreska pseudotaktowa	!	!	!	!	!
.	.	2c\	-ra	.	.	.	.
2D\	-li	2d\	glo-	2A/	-ra	2f#X\	-li
!LO:TX:t=P:problem=kreska pseudotaktowa	!	!	!	!	!	!LO:TX:t=P:problem=kreska pseudotaktowa	!
2E-X\	et	4c\	.	2.G/	glo-	2g\	et
.	.	4B-\	.	.	.	.	.
=13-	=13-	=13-	=13-	=13-	=13-	=13-	=13-
1C/	ter-	2.c\	.	.	.	1e-X\	ter-
.	.	.	.	4G/	-ri-	.	.
!	!	!	!	!LO:TX:t=P:problem=kreska pseudotaktowa	!	!	!
.	.	.	.	2A/	-â	.	.
!	!	!LO:TX:t=P:problem=kreska pseudotaktowa	!	!	!	!	!
.	.	4c\	-ri-	.	.	.	.
2BB-/	-ra	2F/	-a	4B-/	tu-	2d,\	-ra
.	.	.	.	4c/	.	.	.
2.BB-/	glo-	2.F/	glo-	4d\	.	2.d\	glo-
.	.	.	.	4e\	.	.	.
=14-	=14-	=14-	=14-	=14-	=14-	=14-	=14-
.	.	.	.	1f\	.	.	.
4BB-/	ri-	4G/	-ri-	.	.	4d\	-ri-
2F\	-â	1A\	-â	.	.	2c\	-â
1G\	tu-	.	.	0.d\;	-a.	1B-/	tu-
.	.	1G/	tu-	.	.	.	.
=15-	=15-	=15-	=15-	=15-	=15-	=15-	=15-
!LO:TX:a:t=Osanna\nut Sanct(us)	!	!	!	!LO:TX:a:t=Osanna\nut Sanct(us).	!	!LO:TX:a:t=Osanna\nut Sanct(us).	!
0D\;	-â	.	.	.	.	0A/;	-â
.	.	2F#X/	.	.	.	.	.
!	!	!LO:TX:a:t=Osanna\nut Sanct(us).	!	!	!	!	!
!	!	!LO:N:vis=0	!	!	!	!	!
.	.	1F#X/;	-â	.	.	.	.
!	!	!	!	!LO:LB:g=original	!	!LO:LB:g=original	!
=16||-	=16||-	=16||-	=16||-	=16||-	=16||-	=16||-	=16||-
*	*	*	*	*xywh-#125:7302,1890,6043,627	*	*	*
*M2/1	*	*M2/1	*	*M2/1	*	*M2/1	*
*met(C|)	*	*met(C|)	*	*met(C|)	*	*met(C|)	*
!	!	!	!	!LO:TX:t=P:problem=kreska pseudotaktowa	!	!	!
*	*	*	*	*	*	*xywh-#41:7171,1894,5854,651	*
00r	.	0r	.	0r	.	1.g\	Be-
!	!	!	!	!	!	!LO:TX:t=P:problem=kreska pseudotaktowa	!
.	.	.	.	.	.	2d\	-ne-
=17-	=17-	=17-	=17-	=17-	=17-	=17-	=17-
.	.	1r	.	2r	.	1e-X\	-di-
.	.	.	.	1g\	Be-	.	.
.	.	1.G/	Be-	.	.	1.d\	-ctus
!	!	!	!	!LO:TX:t=P:problem=kreska pseudotaktowa	!	!	!
.	.	.	.	2d\	-ne-	.	.
=18-	=18-	=18-	=18-	=18-	=18-	=18-	=18-
!LO:TX:t=P:problem=kreska pseudotaktowa	!	!	!	!	!	!	!
1r	.	.	.	1e-X\	-di-	.	.
!	!	!	!	!	!	!LO:TX:t=P:problem=kreska pseudotaktowa	!
.	.	2A\	-ne-	.	.	2c/	qui
1.G\	Be-	2.B-\	-di-	2.d\	-ctus	2.B-/	Ve-
!	!	!LO:TX:t=P:problem=kreska pseudotaktowa	!	!LO:TX:t=P:problem=kreska pseudotaktowa	!	!	!
.	.	4c\	.	4c/	.	4A/	.
=19-	=19-	=19-	=19-	=19-	=19-	=19-	=19-
.	.	1d\	.	2B-/	qui	4G/	.
.	.	.	.	.	.	8F#X/L	.
.	.	.	.	.	.	8E/J	.
!LO:TX:t=P:problem=kreska pseudotaktowa	!	!	!	!	!	!	!
2D\	-ne-	.	.	1A/	Ve-	2F#/	.
!	!	!	!	!	!	!LO:TX:t=P:problem=kreska pseudotaktowa	!
1E-X\	-di-	2B-\	-ctus	.	.	1G/	-nit
!	!	!LO:TX:t=P:problem=kreska pseudotaktowa	!	!	!	!	!
.	.	2c\	qui	2G/	.	.	.
=20-	=20-	=20-	=20-	=20-	=20-	=20-	=20-
2.D/	-ctus	1A\	Ve-	4G/	.	2r	.
.	.	.	.	8F#X/L	.	.	.
.	.	.	.	8E/J	.	.	.
!	!	!	!	!LO:TX:t=P:problem=kreska pseudotaktowa	!	!	!
.	.	.	.	2F#/	.	1d\	in
!LO:TX:t=P:problem=kreska pseudotaktowa	!	!	!	!	!	!	!
4C/	qui	.	.	.	.	.	.
!	!	!	!	!LO:TX:t=P:problem=kreska pseudotaktowa	!	!	!
2BBn/	Ve-	2G/	-nit	1G/	-nit.	.	.
2C/	.	4r	.	.	.	1e\	No-
!	!	!LO:TX:t=P:problem=kreska pseudotaktowa	!	!	!	!	!
.	.	4c\	in	.	.	.	.
=21-	=21-	=21-	=21-	=21-	=21-	=21-	=21-
!	!	!	!	!LO:TX:t=P:problem=kreska pseudotaktowa	!	!	!
1AA/	.	2.c\	No-	1r	.	.	.
!	!	!	!	!	!	!LO:TX:t=P:problem=kreska pseudotaktowa	!
.	.	.	.	.	.	2f#X\	-mi-
.	.	4c\	-mi-	.	.	.	.
!	!	!LO:LB:g=original	!	!	!	!	!
!LO:TX:t=P:problem=kreska pseudotaktowa	!	!LO:TX:t=P:problem=kreska pseudotaktowa	!	!	!	!	!
*	*	*xywh-#201:7151,2858,6025,628	*	*	*	*	*
1GG/	-nit	1Bn\	-ne	1d\	in	2g\	-ne
.	.	.	.	.	.	2.g\	Do-
=22-	=22-	=22-	=22-	=22-	=22-	=22-	=22-
0r	.	2.c\	Do-	1.e\	No-	.	.
.	.	.	.	.	.	4f\	.
.	.	.	.	.	.	4e\	.
.	.	4B-\	.	.	.	4d\	.
.	.	2.A\	.	.	.	2.c/	.
!	!	!	!	!LO:TX:t=P:problem=kreska pseudotaktowa	!	!	!
.	.	.	.	2f#X\	-mi-	.	.
.	.	4A/	-mi-	.	.	4c/	-mi-
=23-	=23-	=23-	=23-	=23-	=23-	=23-	=23-
!	!	!LO:TX:t=P:problem=kreska pseudotaktowa	!	!	!	!LO:TX:t=P:problem=kreska pseudotaktowa	!
2r	.	1G/	-ni	2g\	-ne	1d\	-ni
!LO:TX:t=P:problem=kreska pseudotaktowa	!	!	!	!	!	!	!
2G\	in	.	.	2.d\	Do-	.	.
!	!	!	!	!	!	!LO:TX:t=P:problem=kreska pseudotaktowa	!
2.G\	No-	00r	.	.	.	1r	.
.	.	.	.	4c/	.	.	.
.	.	.	.	4B-/	.	.	.
4G\	-mi-	.	.	8A/L	.	.	.
!	!	!	!	!LO:TX:t=P:problem=kreska pseudotaktowa	!	!	!
.	.	.	.	8G/J	.	.	.
=24-	=24-	=24-	=24-	=24-	=24-	=24-	=24-
!	!	!	!	!	!	!LO:TX:t=P:problem=kreska pseudotaktowa	!
1F#X\,	-ne	.	.	2.A/	.	1d\	in
.	.	.	.	4A/	-mi-	.	.
2.G\	Do-	.	.	2G,/	-ni	2.d\	No-
.	.	.	.	2g\	in	.	.
*custos:En	*	*	*	*	*	*	*
!LO:TX:t=P:problem=kreska pseudotaktowa	!	!	!	!	!	!	!
4F#\	.	.	.	.	.	4d\	-mi-
!LO:LB:g=original	!	!	!	!	!	!	!
=25-	=25-	=25-	=25-	=25-	=25-	=25-	=25-
!	!	!	!	!	!	!LO:TX:t=P:problem=kreska pseudotaktowa	!
*xywh-#291:1295,2391,5368,659	*	*	*	*	*	*	*
2.En\	.	.	.	2.g\	No-	1c#X\	-ne
!	!	!	!	!LO:TX:t=P:problem=kreska pseudotaktowa	!	!	!
4E\	-mi-	.	.	4g\	-mi-	.	.
!LO:TX:t=P:problem=kreska pseudotaktowa	!	!	!	!LO:TX:t=P:problem=kreska pseudotaktowa	!	!	!
1D\	-ni	1r	.	1f#X\	-ne	2.d\	Do-
.	.	.	.	.	.	4c#/	.
=26-	=26-	=26-	=26-	=26-	=26-	=26-	=26-
!LO:TX:t=P:problem=kreska pseudotaktowa	!	!LO:TX:t=P:problem=kreska pseudotaktowa	!	!	!	!	!
0r	.	1G/	in	2.g\	Do-	4Bn/	.
.	.	.	.	.	.	4c#X/	.
.	.	.	.	.	.	1d\	.
.	.	.	.	4f\	.	.	.
.	.	1.A\	No-	2.e\	.	.	.
.	.	.	.	.	.	2c#X\	-mi-
.	.	.	.	4e\	-mi-	.	.
=27-	=27-	=27-	=27-	=27-	=27-	=27-	=27-
*	*	*	*	*custos:A	*	*	*
!	!	!	!	!LO:TX:t=P:problem=kreska pseudotaktowa	!	!LO:TX:t=P:problem=kreska pseudotaktowa	!
1D\	in	.	.	1d\	-ni.	1d\	-ni.
.	.	2Bn\	-mi-	.	.	.	.
!	!	!	!	!LO:LB:g=original	!	!	!
!	!	!	!	!	!	!LO:TX:t=P:problem=kreska pseudotaktowa	!
*	*	*	*	*xywh-#125:7323,2327,5923,691	*	*	*
2E\	No-	2c\	-ne	2r	.	1r	.
!LO:TX:t=P:problem=kreska pseudotaktowa	!	!	!	!	!	!	!
2F#X\	.	2.d\	Do-	2A/	in	.	.
!	!	!	!	!	!	!LO:LB:g=original	!
=28-	=28-	=28-	=28-	=28-	=28-	=28-	=28-
*	*	*	*	*	*	*xywh-#41:7179,2378,5081,666	*
2G\	-mi-	.	.	2.B-/	No-	2r	.
.	.	4c\	.	.	.	.	.
2.GG/	-ne	4B-\	.	.	.	2g\	in
!	!	!LO:TX:t=P:problem=kreska pseudotaktowa	!	!	!	!	!
.	.	4A\	.	4c/	.	.	.
.	.	2.B-\	.	1.d\	.	2.g\	No-
4AA/	Do-	.	.	.	.	.	.
4BB-/	.	.	.	.	.	.	.
!LO:TX:t=P:problem=kreska pseudotaktowa	!	!LO:TX:t=P:problem=kreska pseudotaktowa	!	!	!	!	!
4C/	.	4B-\	-mi-	.	.	4g\	-mi-
=29-	=29-	=29-	=29-	=29-	=29-	=29-	=29-
!	!	!	!	!	!	!LO:TX:t=P:problem=kreska pseudotaktowa	!
2.D\	.	2A,\	-ni	.	.	1f#X\	-ne
!	!	!	!	!LO:TX:t=P:problem=kreska pseudotaktowa	!	!	!
.	.	2d\	in	2A/	-mi-	.	.
!LO:TX:t=P:problem=kreska pseudotaktowa	!	!	!	!	!	!	!
4D\	mi-	.	.	.	.	.	.
!LO:TX:t=P:problem=kreska pseudotaktowa	!	!	!	!	!	!	!
1GG/	-ni	2.d\	No-	2.B-/	-ne	2.g\	Do-
.	.	4d\	-mi-	8A/L	.	4f#\	.
.	.	.	.	8G/J	.	.	.
=30-	=30-	=30-	=30-	=30-	=30-	=30-	=30-
!	!	!LO:TX:t=P:problem=kreska pseudotaktowa	!	!LO:TX:t=P:problem=kreska pseudotaktowa	!	!	!
0r	.	1c#X\	-ne	1A/	.	2.en\	.
.	.	.	.	.	.	4e\	mi-
!	!	!	!	!	!	!LO:TX:t=P:problem=kreska pseudotaktowa	!
.	.	2.d\	Do-	2.B-/	Do-	2d,\	-ni
.	.	.	.	.	.	2.f\	Do-
.	.	4cn\	.	4c/	.	.	.
=31-	=31-	=31-	=31-	=31-	=31-	=31-	=31-
!LO:TX:t=P:problem=kreska pseudotaktowa	!	!	!	!	!	!	!
1r	.	2.B-\	.	4d\	.	.	.
.	.	.	.	4e\	.	4e\	.
.	.	.	.	4f\	.	1d\	.
!	!	!LO:TX:t=P:problem=kreska pseudotaktowa	!	!	!	!	!
.	.	4B-\	-mi-	8e\L	.	.	.
!	!	!	!	!LO:TX:t=P:problem=kreska pseudotaktowa	!	!	!
.	.	.	.	8d\J	.	.	.
2r;	.	2A;,\	-ni.	2.e\	.	.	.
!LO:TX:t=P:problem=kreska pseudotaktowa	!	!	!	!	!	!LO:TX:t=P:problem=kreska pseudotaktowa	!
2AA/	O-	2A\	O-	.	.	2c#X/	mi-
.	.	.	.	4e\	-mi-	.	.
=32-	=32-	=32-	=32-	=32-	=32-	=32-	=32-
1.D\	-san-	2.F#X/	-ſan-	2A;,/	-ni.	2d;,\	-ni.
!	!	!	!	!LO:TX:t=P:problem=kreska pseudotaktowa	!	!	!
.	.	.	.	2A/	O-	2A/	O-
!	!	!LO:TX:t=P:problem=kreska pseudotaktowa	!	!	!	!	!
.	.	4G/	.	.	.	.	.
.	.	2A\	.	2F#X/	-san-	2.d\	-san-
!LO:TX:t=P:problem=kreska pseudotaktowa	!	!LO:TX:t=P:problem=kreska pseudotaktowa	!	!LO:TX:t=P:problem=kreska pseudotaktowa	!	!	!
2GG/	-na	2B-\	-na	2G/	-na	.	.
!	!	!	!	!	!	!LO:TX:t=P:problem=kreska pseudotaktowa	!
.	.	.	.	.	.	4c/	na
=33-	=33-	=33-	=33-	=33-	=33-	=33-	=33-
2.G\	in	(4G/	in	1d\	in	4B-/	.
.	.	4A/)	.	.	.	4A/	in
.	.	(4B-/	ex-	.	.	2.G/	ex-
!LO:TX:t=P:problem=kreska pseudotaktowa	!	!LO:TX:t=P:problem=kreska pseudotaktowa	!	!	!	!	!
4A\	ex-	4c/)	.	.	.	.	.
4B-\	-cel-	1d\	-cel-	2d\	ex-	.	.
4A\	.	.	.	.	.	4A/	-cel-
4G\	.	.	.	2.g\	-cel-	1B-/	.
!LO:TX:t=P:problem=kreska pseudotaktowa	!	!	!	!	!	!	!
4F\	.	.	.	.	.	.	.
=34-	=34-	=34-	=34-	=34-	=34-	=34-	=34-
!	!	!LO:TX:t=P:problem=kreska pseudotaktowa	!	!	!	!	!
2E-X\	.	1G/	.	.	.	.	.
.	.	.	.	4f\	.	.	.
!LO:TX:t=P:problem=kreska pseudotaktowa	!	!	!	!	!	!LO:TX:t=P:problem=kreska pseudotaktowa	!
2C/	.	.	.	2.e-X\	.	2c/	.
2.G\	.	2.B-\	.	.	.	2d\	.
.	.	.	.	4d\	.	.	.
.	.	.	.	[<2d\	.	2G/	.
4F\	.	4A/	.	.	.	.	.
=35-	=35-	=35-	=35-	=35-	=35-	=35-	=35-
!	!	!	!	!LO:N:xstem:cue	!	!	!
1E-X\	.	1G/	.	4d\]	.	1g\	.
.	.	.	.	8c/L	.	.	.
.	.	.	.	8B-/J	.	.	.
.	.	.	.	2c#X\	.	.	.
0.D\;	-sis.	0.A\;	-sis.	0.d\;	-sis.	0.f#X\;	-sis.
=-	=-	=-	=-	=-	=-	=-	=-
*-	*-	*-	*-	*-	*-	*-	*-
!!!system-decoration: [(s1,s2,s3,s4)]
!!!RDF**kern: > = above
!!!RDF**kern: < = below
!!!EED: Leszek Kubiak
!!!EEV: 2021-03-16
!!!ENC: Krzysztof Stępień
!!!END: 2021-02-25
!!!ENC-iiif: Konrad Tyszka
!!!END-iiif: 2022-09-02
!!!YEC: Copyright 2022 Narodowy Instytut Fryderyka Chopina (https://polishscores.org)
!!!YEM: License CC-BY-4.0 (https://creativecommons.org/licenses/by/4.0)
